X: 1
T: Lobsterman's, The
M: 4/4
L: 1/8
R: reel
K: Ddor
|: &quot;Dm&quot;  A2FA DAFA |(3ABAAB cBAG |&quot;C&quot;  E2CE G,ECE |&quot;G7&quot; DEFG ABcB |
&quot;Dm&quot; A2FA DAFA | A2AB cBAG | &quot;Am&quot; A^GAB cBA=G | AGFE &quot;Dm&quot; D2D2 :|
|: &quot;Dm&quot; (3efedc dcAG | AGAB &quot;F&quot; c2AB | &quot;C&quot; c2cd cBAG |&quot;A7sus4&quot; ABAG &quot;A&quot; E2E2 |
&quot;Dm&quot;(3efedc dcAG | AGAB &quot;F&quot; c2AB | &quot;Am&quot; A^GAB cBA=G | AGFE &quot;Dm&quot; D2D2 :|
